X:3513
L:1/8
M:6/8
K:D
 A |O dfd B2 d | AFA A2 B | AFA d2 e | f2 a gfe | dfd B2 d | AFA A2 d | B2 g fge | d3 d2 :: A | 
 d2 f a2 f | b2 g a2 f | d2 f a2 f | g2 b afe | d2 f a2 f | b2 g a2 g | fdB Ade | 
 f2 a gfeO!D.C.! :|

